X: 1116
T: The Duke of Albany's Tune.
%R: march, reel
B: Henry Playford "Apollo's Banquet", London 1687 (5th Edition)
F: https://archive.org/details/apollosbanquetco01rugg
Z: 2017 John Chambers <jc:trillian.mit.edu>
N: Ignored dot on final G note, to fix the rhythm of repeats.
M: C|
L: 1/8
K: G
% - - - - - - - - - -
B2 |\
G3A B2g2 | d3B A2G2 | (E2D2) (E2G2) | A4 B2d2 | e4 d2B2 | Bd2B A3G | E4 G4 | G6 :: B2 | GABc d2D2 |
egdB A2G2 | d4 d3d | efga f2ed | B2e2- e3d | g2(g/a/b) (dB)(AG) | (ED)(EG) A2(Bd) | e2(dB) (dB)(AG) | E2G2- G2 |]
% - - - - - - - - - -

%%sep 1 1 500
%%sep 1 1 500

